svgs/light/bandage.svg

<svg xmlns="http://www.w3.org/2000/svg" viewBox="0 0 640 512"><!--! Font Awesome Pro 6.4.0 by @fontawesome - https://fontawesome.com License - https://fontawesome.com/license (Commercial License) Copyright 2023 Fonticons, Inc. --><path d="M480 128V384h80c26.5 0 48-21.5 48-48V176c0-26.5-21.5-48-48-48H480zm-32 0H192V384H448V128zM160 384V128H80c-26.5 0-48 21.5-48 48V336c0 26.5 21.5 48 48 48h80zm0-288h32H448h32 80c44.2 0 80 35.8 80 80V336c0 44.2-35.8 80-80 80H480 448 192 160 80c-44.2 0-80-35.8-80-80V176c0-44.2 35.8-80 80-80h80zm112 88a24 24 0 1 1 0 48 24 24 0 1 1 0-48zm72 24a24 24 0 1 1 48 0 24 24 0 1 1 -48 0zm-72 72a24 24 0 1 1 0 48 24 24 0 1 1 0-48zm72 24a24 24 0 1 1 48 0 24 24 0 1 1 -48 0z"/></svg>

<svg xmlns="http://www.w3.org/2000/svg" viewBox="0 0 640 512"><!--! Font Awesome Pro 6.6.0 by @fontawesome - https://fontawesome.com License - https://fontawesome.com/license (Commercial License) Copyright 2024 Fonticons, Inc. --><path d="M480 128l0 256 80 0c26.5 0 48-21.5 48-48l0-160c0-26.5-21.5-48-48-48l-80 0zm-32 0l-256 0 0 256 256 0 0-256zM160 384l0-256-80 0c-26.5 0-48 21.5-48 48l0 160c0 26.5 21.5 48 48 48l80 0zm0-288l32 0 256 0 32 0 80 0c44.2 0 80 35.8 80 80l0 160c0 44.2-35.8 80-80 80l-80 0-32 0-256 0-32 0-80 0c-44.2 0-80-35.8-80-80L0 176c0-44.2 35.8-80 80-80l80 0zm112 88a24 24 0 1 1 0 48 24 24 0 1 1 0-48zm72 24a24 24 0 1 1 48 0 24 24 0 1 1 -48 0zm-72 72a24 24 0 1 1 0 48 24 24 0 1 1 0-48zm72 24a24 24 0 1 1 48 0 24 24 0 1 1 -48 0z"/></svg>
